X:17
T:Brian Boru (Jos)
M:6/8
K:D
|:B G2 F E E2 B G2 F E E2
A F2 E D D2 A F2 E D D2
B G2 F E E2 B G2 F E E2
E F G A2 G F EEE2:|
|:F G A B2 A B2 A B2 A
E F G A2 G A2 G A2 G
F G A B2 A B2 A B2
E F G A2 G F EEE2:|
|:B G2 F E B2 B G2 F E B2
A F2 E D A2 A F2 E D A2
B G2 F E B2 B G2 F E B2
E F G A2 G F EEE2:|
|:B G2 F E E2 B G2 F E E2
A F2 E D D2 A F2 E D D2
B G2 F E E2 B G2 F E E2
E F G A2 G F EEE2:|
F G A B2 A B2 A B2 A
E F G A2 G A2 G A2 G
F G A B2 A B2 A B2
E F G A2 G F EEE2
